X:1
T:Title
%%score { 1 | ( 2 3 ) }
L:1/8
M:4/4
K:G
V:1 treble nm="Grand Piano"
V:2 bass 
V:3 bass 
V:1
 z4 z2[Q:1/4=100] [B,D]2 | [B,G][DB][CA][B,G] [CA][Ec][DB][CA] | [B,G]2 [B,D]4 [B,D]2 | %3
 [CE]2 [EG]2 [^DA]2 [DG]2 |[M:3/4] [DB]6 |[M:1/4] [DG]2 |[M:4/4] [Ec][Ec][Ec][Ec] [Ec]3 [EG] | %7
 [DB][DB][DB][DB] [DB]2 [DG][DG] | [^CB][CA][CG][CF] [CE][CF][CG][CB] | [DA]6 [CD]2 | %10
 [B,G][DB][CA][B,G] [CA][Ec][DB][CA] | [DG]2 [B,D]4 [B,D][B,D] | [CE]2 [EG]2 [^DA]2 [DG]2 | %13
 [DB]6 [DB]2 | [Ec][Ec][Ec][Ec] [EA]2 [Ec][Ec] | BBBB G2 BB | [EA]2 E2 F2 D2 |[M:3/4] [B,G]6 | %18
[M:1/4] d2 |[M:4/4] dB e2 d3 B | BG c2 B3 B | [^CB][CA][CG][CF] [CE][CF][CG][CB] | [DA]6 [CD]2 | %23
 [B,G][DB][CA][B,G] [CA][Ec][DB][CA] | [DG]2 [B,D]4 [B,D]2 | [CE]2 [EA][EA] GG F2 | %26
[M:3/4] [B,G]6 |] %27
V:2
 z4 z2 [G,,G,]2 | [G,,G,][G,,G,][G,,G,][G,,G,] [D,F,][D,F,][D,F,][D,F,] | %2
 [G,,G,]2 [G,,G,]4 [G,,G,]2 | [C,G,]2 [C,G,]2 [C,G,]2 [C,G,]2 |[M:3/4] [G,,G,]6 |[M:1/4] [B,,G,]2 | %6
[M:4/4] [C,G,][C,G,][C,G,][C,G,] [C,G,]3 [C,G,] | %7
 [G,,G,][G,,G,][G,,G,][G,,G,] [G,,G,]2 [B,,G,][B,,G,] | %8
 [A,,A,][A,,A,][A,,A,][A,,A,] [A,,A,][A,,A,][A,,E,][A,,G,] | [D,F,]6 [D,F,]2 | %10
 [G,,G,][G,,G,][G,,G,][G,,G,] [D,F,][D,F,][D,F,][D,F,] | [G,,G,]2 [G,,G,]4 [G,,G,]2 | %12
 [C,G,]2 [C,G,]2 [C,G,]2 [C,G,]2 | [G,,G,]6 [G,,G,]2 | %14
 [C,G,][C,G,][C,G,][C,G,] [C,G,]2 [C,G,][C,G,] | [G,D][G,D][G,D][G,D] [G,B,D]2 DD | %16
 [C,C]2 [C,C]2 [D,A,C]2 [D,A,C]2 |[M:3/4] [G,,G,]6 |[M:1/4][K:treble] [G,B,G]2 | %19
[M:4/4] [G,B,G][G,DG] [G,CG]2 [G,B,G]3 [G,B,G] | [G,DG][G,B,D] [G,EG]2 [G,DG]3[K:bass] [G,B,D] | %21
 [A,,A,][A,,A,][A,,A,][A,,A,] [A,,A,][A,,A,][A,,E,][A,,G,] | [D,F,]6 [D,F,]2 | %23
 [G,,G,][G,,G,][G,,G,][G,,G,] [D,F,][D,A,][D,G,][D,F,] | [G,,G,]2 [G,,G,]4 [G,,G,]2 | %25
 [C,G,]2 [C,C][C,C] [D,B,D][D,B,D] [D,A,C]2 |[M:3/4] [G,,G,]6 |] %27
V:3
 x8 | x8 | x8 | x8 |[M:3/4] x6 |[M:1/4] x2 |[M:4/4] x8 | x8 | x8 | x8 | x8 | x8 | x8 | x8 | x8 | %15
 z4 z2 G,2 | x8 |[M:3/4] x6 |[M:1/4][K:treble] x2 |[M:4/4] x8 | x7[K:bass] x | x8 | x8 | x8 | x8 | %25
 x8 |[M:3/4] x6 |] %27

